assets/images/svg/coupon-dots-design.svg

<svg width="243" height="5" viewBox="0 0 243 5" fill="none" xmlns="http://www.w3.org/2000/svg">
<g clip-path="url(#clip0_75_3995)">
<path fill-rule="evenodd" clip-rule="evenodd" d="M321.266 0H321.264C321.21 2.65704 319.052 4.79412 316.397 4.79412C313.743 4.79412 311.585 2.65704 311.531 0H311.528C311.474 2.65704 309.316 4.79412 306.662 4.79412C304.008 4.79412 301.85 2.65704 301.795 0H301.793C301.738 2.65704 299.58 4.79412 296.926 4.79412C294.272 4.79412 292.114 2.65704 292.06 0H292.058C292.003 2.65704 289.845 4.79412 287.191 4.79412C284.537 4.79412 282.379 2.65704 282.324 0H282.323C282.268 2.65704 280.11 4.79412 277.456 4.79412C274.802 4.79412 272.644 2.65704 272.589 0H272.587C272.533 2.65704 270.375 4.79412 267.721 4.79412C265.067 4.79412 262.909 2.65704 262.854 0H262.852C262.797 2.65704 260.639 4.79412 257.985 4.79412C255.331 4.79412 253.173 2.65704 253.119 0H253.117C253.062 2.65704 250.904 4.79412 248.25 4.79412C245.596 4.79412 243.438 2.65704 243.383 0H243.381C243.327 2.65704 241.169 4.79412 238.514 4.79412C235.86 4.79412 233.702 2.65704 233.648 0H233.646C233.591 2.65704 231.433 4.79412 228.779 4.79412C226.125 4.79412 223.967 2.65704 223.913 0H223.911C223.856 2.65704 221.698 4.79412 219.044 4.79412C216.39 4.79412 214.232 2.65704 214.178 0H214.176C214.121 2.65704 211.963 4.79412 209.309 4.79412C206.655 4.79412 204.497 2.65704 204.443 0H204.44C204.386 2.65704 202.228 4.79412 199.574 4.79412C196.919 4.79412 194.761 2.65704 194.707 0H194.704C194.65 2.65704 192.492 4.79412 189.838 4.79412C187.184 4.79412 185.026 2.65704 184.971 0H184.969C184.915 2.65704 182.757 4.79412 180.103 4.79412C177.449 4.79412 175.291 2.65704 175.236 0H175.234C175.18 2.65704 173.022 4.79412 170.368 4.79412C167.714 4.79412 165.556 2.65704 165.501 0H165.499C165.445 2.65704 163.287 4.79412 160.633 4.79412C157.978 4.79412 155.82 2.65704 155.766 0H155.764C155.71 2.65704 153.552 4.79412 150.897 4.79412C148.243 4.79412 146.085 2.65704 146.031 0H146.028C145.974 2.65704 143.816 4.79412 141.162 4.79412C138.508 4.79412 136.35 2.65704 136.295 0H136.293C136.239 2.65704 134.081 4.79412 131.427 4.79412C128.773 4.79412 126.615 2.65704 126.56 0H126.558C126.503 2.65704 124.345 4.79412 121.691 4.79412C119.037 4.79412 116.879 2.65704 116.824 0H116.823C116.768 2.65704 114.61 4.79412 111.956 4.79412C109.302 4.79412 107.144 2.65704 107.089 0H107.087C107.033 2.65704 104.875 4.79412 102.221 4.79412C99.5667 4.79412 97.4087 2.65704 97.3542 0H97.3518C97.2973 2.65704 95.1394 4.79412 92.4852 4.79412C89.8311 4.79412 87.6731 2.65704 87.6186 0H87.6167C87.5622 2.65704 85.4042 4.79412 82.7501 4.79412C80.0959 4.79412 77.938 2.65704 77.8835 0H77.8811C77.8266 2.65704 75.6686 4.79412 73.0145 4.79412C70.3603 4.79412 68.2023 2.65704 68.1479 0H68.146C68.0915 2.65704 65.9335 4.79412 63.2794 4.79412C60.6252 4.79412 58.4672 2.65704 58.4128 0H58.4108C58.3564 2.65704 56.1984 4.79412 53.5442 4.79412C50.8901 4.79412 48.7321 2.65704 48.6776 0H48.6752C48.6208 2.65704 46.4628 4.79412 43.8086 4.79412C41.1545 4.79412 38.9965 2.65704 38.942 0H38.9401C38.8856 2.65704 36.7276 4.79412 34.0735 4.79412C31.4194 4.79412 29.2614 2.65704 29.2069 0H29.205C29.1505 2.65704 26.9925 4.79412 24.3384 4.79412C21.6842 4.79412 19.5262 2.65704 19.4718 0H19.4694C19.4149 2.65704 17.2569 4.79412 14.6028 4.79412C11.9486 4.79412 9.79064 2.65704 9.73618 0H9.73424C9.67978 2.65704 7.52178 4.79412 4.86765 4.79412C2.21351 4.79412 0.0555171 2.65704 0.00105417 0H-1V5H332V0H330.999C330.945 2.65704 328.787 4.79412 326.133 4.79412C323.478 4.79412 321.32 2.65704 321.266 0Z" fill="#5465FF" fill-opacity="0.1"/>
</g>
<defs>
<clipPath id="clip0_75_3995">
<rect width="243" height="5" fill="white"/>
</clipPath>
</defs>
</svg>

<svg xmlns="http://www.w3.org/2000/svg" width="243" height="5" fill="none" viewBox="0 0 243 5"><g clip-path="url(#a)"><path fill="#5465ff" fill-opacity=".1" fill-rule="evenodd" d="M321.266 0h-.002c-.054 2.657-2.212 4.794-4.867 4.794S311.585 2.657 311.531 0h-.003c-.054 2.657-2.212 4.794-4.866 4.794S301.85 2.657 301.795 0h-.002c-.055 2.657-2.213 4.794-4.867 4.794S292.114 2.657 292.06 0h-.002c-.055 2.657-2.213 4.794-4.867 4.794S282.379 2.657 282.324 0h-.001c-.055 2.657-2.213 4.794-4.867 4.794S272.644 2.657 272.589 0h-.002c-.054 2.657-2.212 4.794-4.866 4.794S262.909 2.657 262.854 0h-.002c-.055 2.657-2.213 4.794-4.867 4.794S253.173 2.657 253.119 0h-.002c-.055 2.657-2.213 4.794-4.867 4.794S243.438 2.657 243.383 0h-.002c-.054 2.657-2.212 4.794-4.867 4.794S233.702 2.657 233.648 0h-.002c-.055 2.657-2.213 4.794-4.867 4.794S223.967 2.657 223.913 0h-.002c-.055 2.657-2.213 4.794-4.867 4.794S214.232 2.657 214.178 0h-.002c-.055 2.657-2.213 4.794-4.867 4.794S204.497 2.657 204.443 0h-.003c-.054 2.657-2.212 4.794-4.866 4.794-2.655 0-4.813-2.137-4.867-4.794h-.003c-.054 2.657-2.212 4.794-4.866 4.794S185.026 2.657 184.971 0h-.002c-.054 2.657-2.212 4.794-4.866 4.794S175.291 2.657 175.236 0h-.002c-.054 2.657-2.212 4.794-4.866 4.794S165.556 2.657 165.501 0h-.002c-.054 2.657-2.212 4.794-4.866 4.794-2.655 0-4.813-2.137-4.867-4.794h-.002c-.054 2.657-2.212 4.794-4.867 4.794S146.085 2.657 146.031 0h-.003c-.054 2.657-2.212 4.794-4.866 4.794S136.35 2.657 136.295 0h-.002c-.054 2.657-2.212 4.794-4.866 4.794S126.615 2.657 126.56 0h-.002c-.055 2.657-2.213 4.794-4.867 4.794S116.879 2.657 116.824 0h-.001c-.055 2.657-2.213 4.794-4.867 4.794S107.144 2.657 107.089 0h-.002c-.054 2.657-2.212 4.794-4.866 4.794S97.409 2.657 97.354 0h-.002c-.055 2.657-2.213 4.794-4.867 4.794S87.673 2.657 87.62 0h-.002c-.055 2.657-2.213 4.794-4.867 4.794S77.938 2.657 77.883 0h-.002c-.054 2.657-2.212 4.794-4.867 4.794S68.203 2.657 68.149 0h-.002c-.055 2.657-2.213 4.794-4.867 4.794S58.467 2.657 58.413 0h-.002c-.055 2.657-2.213 4.794-4.867 4.794S48.732 2.657 48.678 0h-.003c-.054 2.657-2.212 4.794-4.866 4.794S38.997 2.657 38.942 0h-.002c-.054 2.657-2.212 4.794-4.866 4.794-2.655 0-4.813-2.137-4.867-4.794h-.002c-.054 2.657-2.212 4.794-4.867 4.794S19.526 2.657 19.472 0h-.003c-.054 2.657-2.212 4.794-4.866 4.794S9.79 2.657 9.736 0h-.002C9.68 2.657 7.522 4.794 4.868 4.794S.056 2.657 0 0H-1v5h333V0h-1.001c-.054 2.657-2.212 4.794-4.866 4.794-2.655 0-4.813-2.137-4.867-4.794" clip-rule="evenodd"/></g><defs><clipPath id="a"><path fill="#fff" d="M0 0h243v5H0z"/></clipPath></defs></svg>
